icons/modern/french-fries.svg

<svg width="32" height="32" viewBox="0 0 32 32" fill="none" xmlns="http://www.w3.org/2000/svg">
<path d="M28.87 12.33C28.87 6.62 24.25 2 18.54 2H13.33C7.63 2 3 6.62 3 12.33H7.7V21.03H24.17V12.33H28.87Z" fill="url(#paint0_linear_18_30853)"/>
<g filter="url(#filter0_f_18_30853)">
<path d="M28.4375 12.5157C28.4375 6.92762 24.0454 2.40625 18.6171 2.40625H13.6641C8.24534 2.40625 3.84375 6.92762 3.84375 12.5157H8.31188V21.03H23.9694V12.5157H28.4375Z" fill="url(#paint1_linear_18_30853)"/>
<path d="M28.4375 12.5157C28.4375 6.92762 24.0454 2.40625 18.6171 2.40625H13.6641C8.24534 2.40625 3.84375 6.92762 3.84375 12.5157H8.31188V21.03H23.9694V12.5157H28.4375Z" fill="url(#paint2_linear_18_30853)"/>
</g>
<path d="M23.06 12.33C23.06 12.36 23.06 12.4 23.06 12.43C23.06 16.36 19.87 19.55 15.94 19.55C12.01 19.55 8.82001 16.36 8.82001 12.43C8.82001 12.4 8.82001 12.36 8.82001 12.33H3.01001L6.64001 28.29C6.88001 29.35 7.82001 30.1 8.91001 30.1H22.97C24.06 30.1 25 29.35 25.24 28.29L28.87 12.33H23.06V12.33Z" fill="url(#paint3_linear_18_30853)"/>
<g filter="url(#filter1_f_18_30853)">
<path d="M12 5.06249C11.9948 4.50179 13.3523 4.0445 13.7656 3.79688C14.0418 3.7943 16.3849 4.21919 16.3875 4.49532L16.5577 22.7445C16.5602 23.0207 16.3385 23.2466 16.0623 23.2492L12.6748 23.2808C12.3987 23.2833 12.1728 23.0616 12.1702 22.7854L12 5.06249Z" fill="#9A1B2B"/>
</g>
<path d="M13.0047 4.1282C13.0021 3.85207 13.2238 3.62613 13.5 3.62356L16.8875 3.59197C17.1636 3.5894 17.3896 3.81116 17.3921 4.08729L17.5623 22.3365C17.5649 22.6126 17.3431 22.8386 17.067 22.8411L13.6795 22.8727C13.4033 22.8753 13.1774 22.6535 13.1748 22.3774L13.0047 4.1282Z" fill="url(#paint4_linear_18_30853)"/>
<path d="M13.0047 4.1282C13.0021 3.85207 13.2238 3.62613 13.5 3.62356L16.8875 3.59197C17.1636 3.5894 17.3896 3.81116 17.3921 4.08729L17.5623 22.3365C17.5649 22.6126 17.3431 22.8386 17.067 22.8411L13.6795 22.8727C13.4033 22.8753 13.1774 22.6535 13.1748 22.3774L13.0047 4.1282Z" fill="url(#paint5_linear_18_30853)"/>
<path d="M21.6406 7.47134C21.6741 7.19723 21.9234 7.00213 22.1975 7.03556L25.5602 7.44571C25.8343 7.47915 26.0294 7.72846 25.996 8.00257L23.7864 26.1183C23.753 26.3924 23.5037 26.5875 23.2296 26.5541L19.8668 26.1439C19.5927 26.1105 19.3976 25.8612 19.431 25.5871L21.6406 7.47134Z" fill="url(#paint6_linear_18_30853)"/>
<path d="M21.6406 7.47134C21.6741 7.19723 21.9234 7.00213 22.1975 7.03556L25.5602 7.44571C25.8343 7.47915 26.0294 7.72846 25.996 8.00257L23.7864 26.1183C23.753 26.3924 23.5037 26.5875 23.2296 26.5541L19.8668 26.1439C19.5927 26.1105 19.3976 25.8612 19.431 25.5871L21.6406 7.47134Z" fill="url(#paint7_linear_18_30853)"/>
<path d="M17.9288 6.073C17.9643 5.79915 18.215 5.6059 18.4889 5.64137L21.8485 6.07656C22.1223 6.11203 22.3156 6.36279 22.2801 6.63664L19.9357 24.7354C19.9002 25.0093 19.6495 25.2025 19.3756 25.1671L16.016 24.7319C15.7422 24.6964 15.5489 24.4456 15.5844 24.1718L17.9288 6.073Z" fill="url(#paint8_linear_18_30853)"/>
<path d="M17.9288 6.073C17.9643 5.79915 18.215 5.6059 18.4889 5.64137L21.8485 6.07656C22.1223 6.11203 22.3156 6.36279 22.2801 6.63664L19.9357 24.7354C19.9002 25.0093 19.6495 25.2025 19.3756 25.1671L16.016 24.7319C15.7422 24.6964 15.5489 24.4456 15.5844 24.1718L17.9288 6.073Z" fill="url(#paint9_linear_18_30853)"/>
<path d="M17.9288 6.073C17.9643 5.79915 18.215 5.6059 18.4889 5.64137L21.8485 6.07656C22.1223 6.11203 22.3156 6.36279 22.2801 6.63664L19.9357 24.7354C19.9002 25.0093 19.6495 25.2025 19.3756 25.1671L16.016 24.7319C15.7422 24.6964 15.5489 24.4456 15.5844 24.1718L17.9288 6.073Z" fill="url(#paint10_radial_18_30853)"/>
<g filter="url(#filter2_f_18_30853)">
<path d="M5.43313 8.79689C5.37864 8.35724 6.46101 7.40907 7.03398 6.93204C7.10363 6.87406 7.18775 6.83804 7.27829 6.84188C7.8517 6.86615 9.73568 7.15087 9.77248 7.39685L11.2955 20.369C11.3364 20.6421 11.1481 20.8966 10.875 20.9375L7.52462 21.4387C7.25355 21.4793 7.00079 21.2941 6.95709 21.0243C6.95644 21.0202 6.95651 21.0211 6.95601 21.0171C6.9397 20.8862 5.49091 9.26302 5.43313 8.79689Z" fill="#93142A"/>
</g>
<path d="M6.55812 7.16121C6.51727 6.88811 6.70554 6.63359 6.97864 6.59274L10.329 6.09154C10.6021 6.05068 10.8566 6.23896 10.8975 6.51206L13.5976 24.5612C13.6384 24.8343 13.4501 25.0888 13.177 25.1297L9.82665 25.6309C9.55355 25.6717 9.29903 25.4835 9.25818 25.2104L6.55812 7.16121Z" fill="url(#paint11_linear_18_30853)"/>
<path d="M6.55812 7.16121C6.51727 6.88811 6.70554 6.63359 6.97864 6.59274L10.329 6.09154C10.6021 6.05068 10.8566 6.23896 10.8975 6.51206L13.5976 24.5612C13.6384 24.8343 13.4501 25.0888 13.177 25.1297L9.82665 25.6309C9.55355 25.6717 9.29903 25.4835 9.25818 25.2104L6.55812 7.16121Z" fill="url(#paint12_linear_18_30853)"/>
<path d="M6.55812 7.16121C6.51727 6.88811 6.70554 6.63359 6.97864 6.59274L10.329 6.09154C10.6021 6.05068 10.8566 6.23896 10.8975 6.51206L13.5976 24.5612C13.6384 24.8343 13.4501 25.0888 13.177 25.1297L9.82665 25.6309C9.55355 25.6717 9.29903 25.4835 9.25818 25.2104L6.55812 7.16121Z" fill="url(#paint13_radial_18_30853)"/>
<path d="M10.6796 7.93162C10.6522 7.65683 10.8528 7.41192 11.1276 7.3846L14.4987 7.04946C14.7735 7.02214 15.0184 7.22275 15.0457 7.49754L16.8512 25.658C16.8785 25.9328 16.6779 26.1777 16.4031 26.205L13.0321 26.5402C12.7573 26.5675 12.5124 26.3669 12.4851 26.0921L10.6796 7.93162Z" fill="url(#paint14_linear_18_30853)"/>
<path d="M10.6796 7.93162C10.6522 7.65683 10.8528 7.41192 11.1276 7.3846L14.4987 7.04946C14.7735 7.02214 15.0184 7.22275 15.0457 7.49754L16.8512 25.658C16.8785 25.9328 16.6779 26.1777 16.4031 26.205L13.0321 26.5402C12.7573 26.5675 12.5124 26.3669 12.4851 26.0921L10.6796 7.93162Z" fill="url(#paint15_linear_18_30853)"/>
<path d="M24.35 12.33C23.65 12.33 23.07 12.84 22.95 13.53C22.36 16.87 19.45 19.41 15.94 19.41C12.43 19.41 9.52001 16.87 8.93001 13.53C8.81001 12.84 8.23001 12.33 7.53001 12.33H3.01001L6.64001 28.29C6.88001 29.35 7.82001 30.1 8.91001 30.1H22.97C24.06 30.1 25 29.35 25.24 28.29L28.87 12.33H24.35V12.33Z" fill="url(#paint16_linear_18_30853)"/>
<g filter="url(#filter3_f_18_30853)">
<path d="M8.34375 13.0938C8.61458 15.3646 10.75 19.7812 15.8438 19.7812" stroke="url(#paint17_radial_18_30853)" stroke-width="0.3" stroke-linecap="round"/>
</g>
<g filter="url(#filter4_f_18_30853)">
<path d="M28.375 12.9375L23.6406 13.0156C23.3438 13.0156 23.2219 13.4344 23.1719 13.7344C23.0274 14.6009 21.3281 19.5938 16.5469 19.5938" stroke="url(#paint18_linear_18_30853)" stroke-width="0.3" stroke-linecap="round"/>
</g>
<defs>
<filter id="filter0_f_18_30853" x="3.34375" y="1.90625" width="25.5938" height="19.6237" filterUnits="userSpaceOnUse" color-interpolation-filters="sRGB">
<feFlood flood-opacity="0" result="BackgroundImageFix"/>
<feBlend mode="normal" in="SourceGraphic" in2="BackgroundImageFix" result="shape"/>
<feGaussianBlur stdDeviation="0.25" result="effect1_foregroundBlur_18_30853"/>
</filter>
<filter id="filter1_f_18_30853" x="10" y="1.79688" width="8.55768" height="23.4839" filterUnits="userSpaceOnUse" color-interpolation-filters="sRGB">
<feFlood flood-opacity="0" result="BackgroundImageFix"/>
<feBlend mode="normal" in="SourceGraphic" in2="BackgroundImageFix" result="shape"/>
<feGaussianBlur stdDeviation="1" result="effect1_foregroundBlur_18_30853"/>
</filter>
<filter id="filter2_f_18_30853" x="3.43115" y="4.84161" width="9.86993" height="18.6027" filterUnits="userSpaceOnUse" color-interpolation-filters="sRGB">
<feFlood flood-opacity="0" result="BackgroundImageFix"/>
<feBlend mode="normal" in="SourceGraphic" in2="BackgroundImageFix" result="shape"/>
<feGaussianBlur stdDeviation="1" result="effect1_foregroundBlur_18_30853"/>
</filter>
<filter id="filter3_f_18_30853" x="7.94373" y="12.6937" width="8.30005" height="7.48752" filterUnits="userSpaceOnUse" color-interpolation-filters="sRGB">
<feFlood flood-opacity="0" result="BackgroundImageFix"/>
<feBlend mode="normal" in="SourceGraphic" in2="BackgroundImageFix" result="shape"/>
<feGaussianBlur stdDeviation="0.125" result="effect1_foregroundBlur_18_30853"/>
</filter>
<filter id="filter4_f_18_30853" x="16.1469" y="12.5375" width="12.6282" height="7.45624" filterUnits="userSpaceOnUse" color-interpolation-filters="sRGB">
<feFlood flood-opacity="0" result="BackgroundImageFix"/>
<feBlend mode="normal" in="SourceGraphic" in2="BackgroundImageFix" result="shape"/>
<feGaussianBlur stdDeviation="0.125" result="effect1_foregroundBlur_18_30853"/>
</filter>
<linearGradient id="paint0_linear_18_30853" x1="15.935" y1="2" x2="15.935" y2="16.5" gradientUnits="userSpaceOnUse">
<stop stop-color="#B22D50"/>
<stop offset="1" stop-color="#A7273C"/>
</linearGradient>
<linearGradient id="paint1_linear_18_30853" x1="7.84219" y1="4.42317" x2="18.626" y2="12.7651" gradientUnits="userSpaceOnUse">
<stop stop-color="#B5425F"/>
<stop offset="1" stop-color="#B74561" stop-opacity="0"/>
</linearGradient>
<linearGradient id="paint2_linear_18_30853" x1="12.1875" y1="13.8125" x2="12.1875" y2="2.40625" gradientUnits="userSpaceOnUse">
<stop offset="0.109589" stop-color="#902438"/>
<stop offset="0.213699" stop-color="#94273B" stop-opacity="0"/>
</linearGradient>
<linearGradient id="paint3_linear_18_30853" x1="3.00641" y1="21.2136" x2="28.8694" y2="21.2136" gradientUnits="userSpaceOnUse">
<stop stop-color="#ED1C26"/>
<stop offset="0.456" stop-color="#ED1452"/>
<stop offset="1" stop-color="#EC098C"/>
</linearGradient>
<linearGradient id="paint4_linear_18_30853" x1="15.6875" y1="5.375" x2="18.3564" y2="22.2803" gradientUnits="userSpaceOnUse">
<stop offset="0.0481663" stop-color="#FEE654"/>
<stop offset="0.326864" stop-color="#CB9A28"/>
<stop offset="0.686476" stop-color="#995C11"/>
</linearGradient>
<linearGradient id="paint5_linear_18_30853" x1="13.3141" y1="7.69854" x2="14.3123" y2="7.70004" gradientUnits="userSpaceOnUse">
<stop stop-color="#D3A524"/>
<stop offset="0.467116" stop-color="#DBAD29"/>
<stop offset="1" stop-color="#D1A71E" stop-opacity="0"/>
</linearGradient>
<linearGradient id="paint6_linear_18_30853" x1="21.3861" y1="7.28765" x2="24.4238" y2="26.2406" gradientUnits="userSpaceOnUse">
<stop offset="0.0481663" stop-color="#FFE855"/>
<stop offset="0.686476" stop-color="#F7BC4A"/>
</linearGradient>
<linearGradient id="paint7_linear_18_30853" x1="21.5313" y1="11.375" x2="22.8727" y2="11.5487" gradientUnits="userSpaceOnUse">
<stop stop-color="#DDA80E"/>
<stop offset="0.551827" stop-color="#DDA80E"/>
<stop offset="1" stop-color="#CFAB2B" stop-opacity="0"/>
</linearGradient>
<linearGradient id="paint8_linear_18_30853" x1="17.5782" y1="5.89311" x2="20.5616" y2="24.872" gradientUnits="userSpaceOnUse">
<stop offset="0.0481663" stop-color="#FFE855"/>
<stop offset="0.686476" stop-color="#F7BC4A"/>
</linearGradient>
<linearGradient id="paint9_linear_18_30853" x1="17.3437" y1="9.875" x2="18.7148" y2="10.0879" gradientUnits="userSpaceOnUse">
<stop stop-color="#BA8F22"/>
<stop offset="0.551827" stop-color="#CAA92E"/>
<stop offset="1" stop-color="#CFAB2B" stop-opacity="0"/>
</linearGradient>
<radialGradient id="paint10_radial_18_30853" cx="0" cy="0" r="1" gradientUnits="userSpaceOnUse" gradientTransform="translate(20.625 19) rotate(98.9726) scale(7.21327 3.69938)">
<stop stop-color="#B96D11"/>
<stop offset="1" stop-color="#C07617" stop-opacity="0"/>
</radialGradient>
<linearGradient id="paint11_linear_18_30853" x1="8.65382" y1="6.34211" x2="11.5018" y2="25.3803" gradientUnits="userSpaceOnUse">
<stop offset="0.0481663" stop-color="#FDE252"/>
<stop offset="0.686476" stop-color="#D3A538"/>
</linearGradient>
<linearGradient id="paint12_linear_18_30853" x1="7.03125" y1="10.25" x2="8.32812" y2="10.0625" gradientUnits="userSpaceOnUse">
<stop stop-color="#BA8F22"/>
<stop offset="0.551827" stop-color="#CAA92E"/>
<stop offset="1" stop-color="#CFAB2B" stop-opacity="0"/>
</linearGradient>
<radialGradient id="paint13_radial_18_30853" cx="0" cy="0" r="1" gradientUnits="userSpaceOnUse" gradientTransform="translate(11.875 15.8612) rotate(82.763) scale(9.9227 4.66075)">
<stop stop-color="#A7650A"/>
<stop offset="1" stop-color="#A15D0A" stop-opacity="0"/>
</radialGradient>
<linearGradient id="paint14_linear_18_30853" x1="12.5179" y1="7.30239" x2="15.7299" y2="26.1651" gradientUnits="userSpaceOnUse">
<stop offset="0.0481663" stop-color="#FFE855"/>
<stop offset="0.686476" stop-color="#F7BC4A"/>
</linearGradient>
<linearGradient id="paint15_linear_18_30853" x1="11.0964" y1="11.1993" x2="12.3482" y2="11.0773" gradientUnits="userSpaceOnUse">
<stop stop-color="#BA8F22"/>
<stop offset="0.551827" stop-color="#CAA92E"/>
<stop offset="1" stop-color="#CFAB2B" stop-opacity="0"/>
</linearGradient>
<linearGradient id="paint16_linear_18_30853" x1="5.3125" y1="22.5" x2="27.9375" y2="19.6875" gradientUnits="userSpaceOnUse">
<stop stop-color="#BB2C41"/>
<stop offset="0.161488" stop-color="#DD2B5D"/>
<stop offset="0.490196" stop-color="#E92F74"/>
<stop offset="1" stop-color="#F2368C"/>
</linearGradient>
<radialGradient id="paint17_radial_18_30853" cx="0" cy="0" r="1" gradientUnits="userSpaceOnUse" gradientTransform="translate(10.75 15.5) rotate(54.9799) scale(5.22772 5.86287)">
<stop stop-color="#FF6983"/>
<stop offset="1" stop-color="#FB5471" stop-opacity="0"/>
</radialGradient>
<linearGradient id="paint18_linear_18_30853" x1="17.5625" y1="13.4375" x2="26.8245" y2="16.7371" gradientUnits="userSpaceOnUse">
<stop stop-color="#FB5471" stop-opacity="0"/>
<stop offset="0.520958" stop-color="#DE316B"/>
<stop offset="0.622755" stop-color="#FC5396"/>
</linearGradient>
</defs>
</svg>

<svg width="32" height="32" fill="none" xmlns="http://www.w3.org/2000/svg"><path d="M28.87 12.33C28.87 6.62 24.25 2 18.54 2h-5.21C7.63 2 3 6.62 3 12.33h4.7v8.7h16.47v-8.7h4.7Z" fill="url(#a)"/><g filter="url(#b)"><path d="M28.438 12.516c0-5.588-4.393-10.11-9.82-10.11h-4.954c-5.419 0-9.82 4.522-9.82 10.11h4.468v8.514h15.657v-8.514h4.468Z" fill="url(#c)"/><path d="M28.438 12.516c0-5.588-4.393-10.11-9.82-10.11h-4.954c-5.419 0-9.82 4.522-9.82 10.11h4.468v8.514h15.657v-8.514h4.468Z" fill="url(#d)"/></g><path d="M23.06 12.33v.1c0 3.93-3.19 7.12-7.12 7.12s-7.12-3.19-7.12-7.12v-.1H3.01l3.63 15.96a2.323 2.323 0 0 0 2.27 1.81h14.06c1.09 0 2.03-.75 2.27-1.81l3.63-15.96h-5.81Z" fill="url(#e)"/><g filter="url(#f)"><path d="M12 5.062c-.005-.56 1.352-1.018 1.766-1.265.276-.003 2.619.422 2.621.698l.17 18.25a.5.5 0 0 1-.495.504l-3.387.032a.5.5 0 0 1-.505-.496L12 5.062Z" fill="#9A1B2B"/></g><path d="M13.005 4.128a.5.5 0 0 1 .495-.504l3.387-.032a.5.5 0 0 1 .505.495l.17 18.25a.5.5 0 0 1-.495.504l-3.387.032a.5.5 0 0 1-.505-.496l-.17-18.249Z" fill="url(#g)"/><path d="M13.005 4.128a.5.5 0 0 1 .495-.504l3.387-.032a.5.5 0 0 1 .505.495l.17 18.25a.5.5 0 0 1-.495.504l-3.387.032a.5.5 0 0 1-.505-.496l-.17-18.249Z" fill="url(#h)"/><path d="M21.64 7.471a.5.5 0 0 1 .558-.435l3.362.41a.5.5 0 0 1 .436.557l-2.21 18.115a.5.5 0 0 1-.556.436l-3.363-.41a.5.5 0 0 1-.436-.557l2.21-18.116Z" fill="url(#i)"/><path d="M21.64 7.471a.5.5 0 0 1 .558-.435l3.362.41a.5.5 0 0 1 .436.557l-2.21 18.115a.5.5 0 0 1-.556.436l-3.363-.41a.5.5 0 0 1-.436-.557l2.21-18.116Z" fill="url(#j)"/><path d="M17.929 6.073a.5.5 0 0 1 .56-.432l3.36.436a.5.5 0 0 1 .431.56l-2.344 18.098a.5.5 0 0 1-.56.432l-3.36-.435a.5.5 0 0 1-.432-.56L17.93 6.073Z" fill="url(#k)"/><path d="M17.929 6.073a.5.5 0 0 1 .56-.432l3.36.436a.5.5 0 0 1 .431.56l-2.344 18.098a.5.5 0 0 1-.56.432l-3.36-.435a.5.5 0 0 1-.432-.56L17.93 6.073Z" fill="url(#l)"/><path d="M17.929 6.073a.5.5 0 0 1 .56-.432l3.36.436a.5.5 0 0 1 .431.56l-2.344 18.098a.5.5 0 0 1-.56.432l-3.36-.435a.5.5 0 0 1-.432-.56L17.93 6.073Z" fill="url(#m)"/><g filter="url(#n)"><path d="M5.433 8.797c-.054-.44 1.028-1.388 1.601-1.865a.359.359 0 0 1 .244-.09c.574.024 2.458.309 2.494.555l1.524 12.972a.5.5 0 0 1-.421.569l-3.35.5a.5.5 0 0 1-.568-.414l-.001-.007-1.523-12.22Z" fill="#93142A"/></g><path d="M6.558 7.161a.5.5 0 0 1 .42-.568l3.351-.501a.5.5 0 0 1 .569.42l2.7 18.05a.5.5 0 0 1-.421.568l-3.35.5a.5.5 0 0 1-.569-.42l-2.7-18.049Z" fill="url(#o)"/><path d="M6.558 7.161a.5.5 0 0 1 .42-.568l3.351-.501a.5.5 0 0 1 .569.42l2.7 18.05a.5.5 0 0 1-.421.568l-3.35.5a.5.5 0 0 1-.569-.42l-2.7-18.049Z" fill="url(#p)"/><path d="M6.558 7.161a.5.5 0 0 1 .42-.568l3.351-.501a.5.5 0 0 1 .569.42l2.7 18.05a.5.5 0 0 1-.421.568l-3.35.5a.5.5 0 0 1-.569-.42l-2.7-18.049Z" fill="url(#q)"/><path d="M10.68 7.932a.5.5 0 0 1 .448-.547l3.37-.336a.5.5 0 0 1 .548.449l1.805 18.16a.5.5 0 0 1-.448.547l-3.37.335a.5.5 0 0 1-.548-.448L10.68 7.932Z" fill="url(#r)"/><path d="M10.68 7.932a.5.5 0 0 1 .448-.547l3.37-.336a.5.5 0 0 1 .548.449l1.805 18.16a.5.5 0 0 1-.448.547l-3.37.335a.5.5 0 0 1-.548-.448L10.68 7.932Z" fill="url(#s)"/><path d="M24.35 12.33c-.7 0-1.28.51-1.4 1.2-.59 3.34-3.5 5.88-7.01 5.88s-6.42-2.54-7.01-5.88c-.12-.69-.7-1.2-1.4-1.2H3.01l3.63 15.96a2.323 2.323 0 0 0 2.27 1.81h14.06c1.09 0 2.03-.75 2.27-1.81l3.63-15.96h-4.52Z" fill="url(#t)"/><g filter="url(#u)"><path d="M8.344 13.094c.27 2.27 2.406 6.687 7.5 6.687" stroke="url(#v)" stroke-width=".3" stroke-linecap="round"/></g><g filter="url(#w)"><path d="m28.375 12.938-4.734.078c-.297 0-.42.418-.47.718-.144.867-1.843 5.86-6.624 5.86" stroke="url(#x)" stroke-width=".3" stroke-linecap="round"/></g><defs><linearGradient id="a" x1="15.935" y1="2" x2="15.935" y2="16.5" gradientUnits="userSpaceOnUse"><stop stop-color="#B22D50"/><stop offset="1" stop-color="#A7273C"/></linearGradient><linearGradient id="c" x1="7.842" y1="4.423" x2="18.626" y2="12.765" gradientUnits="userSpaceOnUse"><stop stop-color="#B5425F"/><stop offset="1" stop-color="#B74561" stop-opacity="0"/></linearGradient><linearGradient id="d" x1="12.188" y1="13.813" x2="12.188" y2="2.406" gradientUnits="userSpaceOnUse"><stop offset=".11" stop-color="#902438"/><stop offset=".214" stop-color="#94273B" stop-opacity="0"/></linearGradient><linearGradient id="e" x1="3.006" y1="21.214" x2="28.869" y2="21.214" gradientUnits="userSpaceOnUse"><stop stop-color="#ED1C26"/><stop offset=".456" stop-color="#ED1452"/><stop offset="1" stop-color="#EC098C"/></linearGradient><linearGradient id="g" x1="15.688" y1="5.375" x2="18.356" y2="22.28" gradientUnits="userSpaceOnUse"><stop offset=".048" stop-color="#FEE654"/><stop offset=".327" stop-color="#CB9A28"/><stop offset=".686" stop-color="#995C11"/></linearGradient><linearGradient id="h" x1="13.314" y1="7.699" x2="14.312" y2="7.7" gradientUnits="userSpaceOnUse"><stop stop-color="#D3A524"/><stop offset=".467" stop-color="#DBAD29"/><stop offset="1" stop-color="#D1A71E" stop-opacity="0"/></linearGradient><linearGradient id="i" x1="21.386" y1="7.288" x2="24.424" y2="26.241" gradientUnits="userSpaceOnUse"><stop offset=".048" stop-color="#FFE855"/><stop offset=".686" stop-color="#F7BC4A"/></linearGradient><linearGradient id="j" x1="21.531" y1="11.375" x2="22.873" y2="11.549" gradientUnits="userSpaceOnUse"><stop stop-color="#DDA80E"/><stop offset=".552" stop-color="#DDA80E"/><stop offset="1" stop-color="#CFAB2B" stop-opacity="0"/></linearGradient><linearGradient id="k" x1="17.578" y1="5.893" x2="20.562" y2="24.872" gradientUnits="userSpaceOnUse"><stop offset=".048" stop-color="#FFE855"/><stop offset=".686" stop-color="#F7BC4A"/></linearGradient><linearGradient id="l" x1="17.344" y1="9.875" x2="18.715" y2="10.088" gradientUnits="userSpaceOnUse"><stop stop-color="#BA8F22"/><stop offset=".552" stop-color="#CAA92E"/><stop offset="1" stop-color="#CFAB2B" stop-opacity="0"/></linearGradient><linearGradient id="o" x1="8.654" y1="6.342" x2="11.502" y2="25.38" gradientUnits="userSpaceOnUse"><stop offset=".048" stop-color="#FDE252"/><stop offset=".686" stop-color="#D3A538"/></linearGradient><linearGradient id="p" x1="7.031" y1="10.25" x2="8.328" y2="10.063" gradientUnits="userSpaceOnUse"><stop stop-color="#BA8F22"/><stop offset=".552" stop-color="#CAA92E"/><stop offset="1" stop-color="#CFAB2B" stop-opacity="0"/></linearGradient><linearGradient id="r" x1="12.518" y1="7.302" x2="15.73" y2="26.165" gradientUnits="userSpaceOnUse"><stop offset=".048" stop-color="#FFE855"/><stop offset=".686" stop-color="#F7BC4A"/></linearGradient><linearGradient id="s" x1="11.096" y1="11.199" x2="12.348" y2="11.077" gradientUnits="userSpaceOnUse"><stop stop-color="#BA8F22"/><stop offset=".552" stop-color="#CAA92E"/><stop offset="1" stop-color="#CFAB2B" stop-opacity="0"/></linearGradient><linearGradient id="t" x1="5.313" y1="22.5" x2="27.938" y2="19.688" gradientUnits="userSpaceOnUse"><stop stop-color="#BB2C41"/><stop offset=".161" stop-color="#DD2B5D"/><stop offset=".49" stop-color="#E92F74"/><stop offset="1" stop-color="#F2368C"/></linearGradient><linearGradient id="x" x1="17.563" y1="13.438" x2="26.825" y2="16.737" gradientUnits="userSpaceOnUse"><stop stop-color="#FB5471" stop-opacity="0"/><stop offset=".521" stop-color="#DE316B"/><stop offset=".623" stop-color="#FC5396"/></linearGradient><filter id="b" x="3.344" y="1.906" width="25.594" height="19.624" filterUnits="userSpaceOnUse" color-interpolation-filters="sRGB"><feFlood flood-opacity="0" result="BackgroundImageFix"/><feBlend in="SourceGraphic" in2="BackgroundImageFix" result="shape"/><feGaussianBlur stdDeviation=".25" result="effect1_foregroundBlur_18_30853"/></filter><filter id="f" x="10" y="1.797" width="8.558" height="23.484" filterUnits="userSpaceOnUse" color-interpolation-filters="sRGB"><feFlood flood-opacity="0" result="BackgroundImageFix"/><feBlend in="SourceGraphic" in2="BackgroundImageFix" result="shape"/><feGaussianBlur stdDeviation="1" result="effect1_foregroundBlur_18_30853"/></filter><filter id="n" x="3.431" y="4.842" width="9.87" height="18.603" filterUnits="userSpaceOnUse" color-interpolation-filters="sRGB"><feFlood flood-opacity="0" result="BackgroundImageFix"/><feBlend in="SourceGraphic" in2="BackgroundImageFix" result="shape"/><feGaussianBlur stdDeviation="1" result="effect1_foregroundBlur_18_30853"/></filter><filter id="u" x="7.944" y="12.694" width="8.3" height="7.488" filterUnits="userSpaceOnUse" color-interpolation-filters="sRGB"><feFlood flood-opacity="0" result="BackgroundImageFix"/><feBlend in="SourceGraphic" in2="BackgroundImageFix" result="shape"/><feGaussianBlur stdDeviation=".125" result="effect1_foregroundBlur_18_30853"/></filter><filter id="w" x="16.147" y="12.537" width="12.628" height="7.456" filterUnits="userSpaceOnUse" color-interpolation-filters="sRGB"><feFlood flood-opacity="0" result="BackgroundImageFix"/><feBlend in="SourceGraphic" in2="BackgroundImageFix" result="shape"/><feGaussianBlur stdDeviation=".125" result="effect1_foregroundBlur_18_30853"/></filter><radialGradient id="m" cx="0" cy="0" r="1" gradientUnits="userSpaceOnUse" gradientTransform="matrix(-1.125 7.125 -3.65411 -.57696 20.625 19)"><stop stop-color="#B96D11"/><stop offset="1" stop-color="#C07617" stop-opacity="0"/></radialGradient><radialGradient id="q" cx="0" cy="0" r="1" gradientUnits="userSpaceOnUse" gradientTransform="rotate(82.763 -3.064 14.67) scale(9.9227 4.66075)"><stop stop-color="#A7650A"/><stop offset="1" stop-color="#A15D0A" stop-opacity="0"/></radialGradient><radialGradient id="v" cx="0" cy="0" r="1" gradientUnits="userSpaceOnUse" gradientTransform="matrix(3 4.28125 -4.8014 3.36449 10.75 15.5)"><stop stop-color="#FF6983"/><stop offset="1" stop-color="#FB5471" stop-opacity="0"/></radialGradient></defs></svg>
